X: 1
T: Tomtain Brae
C: Ian Crichton
R: jig
Z: 2005 John Chambers <jc:trillian.mit.edu>
M: 6/8
L: 1/8
K: D
A \
| "D"DCD dcd | "D"FG^G AFD \
| "Em"EFE e^de | "G"dBA "(A7)"B2d \
| "D"DCD dcd | "D"FG^G AFD |
| "G"BAB "D/F#"AGF | "Em"EFE "A7"B2 :: A \
| "D"FEF DED | "D"FEF AFD \
| "Em"EFE e^de | "G"dBA "(A7)"B2d |
| "D"FEF DED | "D"FEF AFD \
||1 "G"BAB "D/F#"AGF | "Em"EFE "A7"B2 \
:|2 "G"BAB "A7"AGE | "D"FDD D2 |]
